airbyte-config/init/src/main/resources/icons/senseforce.svg

<?xml version="1.0" encoding="UTF-8"?>
<svg width="81px" height="66px" viewBox="0 0 81 66" version="1.1" xmlns="http://www.w3.org/2000/svg" xmlns:xlink="http://www.w3.org/1999/xlink">
    <!-- Generator: Sketch 51.2 (57519) - http://www.bohemiancoding.com/sketch -->
    <title>SF Icon Copy</title>
    <desc>Created with Sketch.</desc>
    <defs></defs>
    <g id="Page-1" stroke="none" stroke-width="1" fill="none" fill-rule="evenodd">
        <path d="M31.8453662,36.3487 C30.7523662,34.5607 29.4013662,32.8887 27.7993662,31.3307 C26.1963662,29.7747 24.4543662,28.1627 22.5743662,26.4987 C21.6793662,25.6977 20.8693662,24.9567 20.1463662,24.2787 C19.4213662,23.6007 18.8273662,22.8997 18.3653662,22.1737 C18.1833662,21.8897 18.0353662,21.2887 17.2673662,21.2887 L6.40936622,21.2887 C5.98336622,21.2887 5.64836622,21.6447 5.65836622,22.0717 C5.66936622,22.5117 5.69436622,22.9347 5.74036622,23.3307 C5.95636622,25.1657 6.50336622,26.8457 7.38336622,28.3707 C8.26036622,29.8987 9.44736622,31.4097 10.9423662,32.9037 C12.4393662,34.3997 14.2193662,36.1327 16.2843662,38.1067 C17.4873662,39.2777 18.5273662,40.3017 19.4063662,41.1817 C20.2843662,42.0597 20.9783662,42.9157 21.4863662,43.7477 C21.9963662,44.5797 22.3273662,45.4367 22.4813662,46.3147 C22.6353662,47.1937 22.6043662,48.1877 22.3883662,49.2977 C22.0803662,50.9937 21.3323662,52.3337 20.1463662,53.3207 C18.9583662,54.3077 17.6403662,54.8007 16.1923662,54.8007 C15.5753662,54.8007 14.9733662,54.7017 14.3883662,54.4997 C13.8023662,54.2997 13.2943662,53.9607 12.8623662,53.4837 C12.4303662,53.0047 12.1223662,52.3807 11.9373662,51.6097 C11.7523662,50.8387 11.7673662,49.8687 11.9833662,48.6967 L12.3533662,46.6157 C12.4753662,45.9067 12.4613662,45.4127 12.3073662,45.1357 C12.1533662,44.8577 11.7523662,44.7187 11.1053662,44.7187 L2.68836622,44.7187 C2.01036622,44.7187 1.54736622,44.8887 1.30136622,45.2277 C1.05436622,45.5677 0.854366217,46.1377 0.699366217,46.9387 L0.283366217,49.3897 C-0.0866337832,51.5787 -0.0946337832,53.6677 0.261366217,55.6557 C0.614366217,57.6457 1.36236622,59.4097 2.50336622,60.9517 C3.64436622,62.4927 5.18536622,63.7187 7.12836622,64.6267 C9.07036622,65.5357 11.4283662,65.9927 14.2033662,65.9927 C16.7623662,65.9927 19.1673662,65.5607 21.4173662,64.6977 C23.6673662,63.8337 25.6573662,62.6707 27.3833662,61.2047 C29.1093662,59.7417 30.5503662,58.0377 31.7073662,56.0957 C32.8633662,54.1537 33.6263662,52.1027 33.9963662,49.9447 C34.4883662,47.0157 34.5273662,44.4637 34.1123662,42.2917 C33.6953662,40.1177 32.9393662,38.1367 31.8453662,36.3487 M38.8057662,9.92 C38.3437662,7.838 37.5107662,6.066 36.3087662,4.601 C35.1057662,3.138 33.5637662,2.004 31.6837662,1.202 C29.8037662,0.401 27.6607662,0 25.2557662,0 C23.6217662,0 21.8107662,0.301 19.8217662,0.901 C17.8337662,1.504 15.9067662,2.467 14.0417662,3.792 C12.1757662,5.118 10.5187662,6.837 9.06976622,8.948 C8.88376622,9.221 8.70676622,9.503 8.53876622,9.793 C8.20276622,10.372 8.63576622,11.099 9.30476622,11.099 L23.5307662,11.099 L23.5307662,11.107 C24.3257662,11.117 24.9977662,11.264 25.5337662,11.562 C26.0887662,11.87 26.5277662,12.286 26.8507662,12.81 C27.1757662,13.334 27.3837662,13.951 27.4757662,14.66 C27.5677662,15.369 27.5367662,16.124 27.3837662,16.926 L26.9667662,19.516 C26.8437662,20.163 26.8357662,20.618 26.9437662,20.879 C27.0527662,21.143 27.3987662,21.273 27.9847662,21.273 L36.2627662,21.273 C37.0017662,21.273 37.5037662,21.143 37.7647662,20.879 C38.0267662,20.618 38.2357662,20.163 38.3897662,19.516 L38.8517662,16.88 C39.2837662,14.32 39.2677662,12 38.8057662,9.92 M42.6768662,49.46 C42.0398662,49.46 41.4948662,49.917 41.3848662,50.545 L39.1548662,63.216 C38.9698662,64.388 39.4008662,64.973 40.4488662,64.973 L49.6978662,64.973 C50.2228662,64.973 50.6228662,64.819 50.9008662,64.511 C51.1778662,64.202 51.3788662,63.771 51.5018662,63.216 L53.6458662,51.051 C53.7928662,50.221 53.1538662,49.46 52.3108662,49.46 L42.6768662,49.46 Z M79.3990662,0.9082 L51.7440662,0.9082 C51.2190662,0.9082 50.7960662,1.0712 50.4730662,1.3932 C50.1480662,1.7192 49.9240662,2.1572 49.8020662,2.7122 L43.7930662,36.7262 C43.6670662,37.4392 44.2150662,38.0942 44.9400662,38.0942 L55.9060662,38.0902 L69.3640662,38.0902 C69.7950662,38.0902 70.1650662,37.9512 70.4740662,37.6742 C70.7820662,37.3962 70.9820662,36.9952 71.0750662,36.4712 L72.4620662,28.6092 C72.5550662,27.9932 72.4860662,27.5682 72.2530662,27.3382 C72.0240662,27.1062 71.7070662,26.9912 71.3060662,26.9912 L57.8490662,26.9912 L60.4850662,12.1462 L77.4100662,12.1462 C77.7800662,12.1462 78.1040662,12.0082 78.3810662,11.7292 C78.6590662,11.4522 78.8440662,11.0202 78.9370662,10.4352 L80.3240662,2.5732 C80.5090662,1.4642 80.2010662,0.9082 79.3990662,0.9082" id="SF-Icon-Copy" fill="#37373C"></path>
    </g>
</svg>

<svg xmlns="http://www.w3.org/2000/svg" width="81" height="66"><path fill="#37373C" fill-rule="evenodd" d="M31.845 36.349c-1.093-1.788-2.444-3.46-4.046-5.018a155.091 155.091 0 0 0-5.225-4.832 142.348 142.348 0 0 1-2.428-2.22c-.725-.678-1.319-1.38-1.78-2.105-.183-.284-.33-.885-1.099-.885H6.41a.757.757 0 0 0-.75.783c.01.44.035.863.081 1.259.216 1.835.763 3.515 1.643 5.04.877 1.528 2.064 3.039 3.56 4.533a342.093 342.093 0 0 0 5.341 5.203 317.703 317.703 0 0 1 3.122 3.075c.878.878 1.572 1.734 2.08 2.566a7.31 7.31 0 0 1 .995 2.567c.154.879.123 1.873-.093 2.983-.308 1.696-1.056 3.036-2.242 4.023-1.188.987-2.506 1.48-3.954 1.48a5.49 5.49 0 0 1-1.804-.301 3.605 3.605 0 0 1-1.526-1.016c-.432-.48-.74-1.103-.925-1.874-.185-.771-.17-1.741.046-2.913l.37-2.081c.122-.71.108-1.203-.046-1.48-.154-.278-.555-.417-1.202-.417H2.688c-.678 0-1.14.17-1.387.509-.247.34-.447.91-.602 1.71L.283 49.39c-.37 2.189-.378 4.278-.022 6.266.353 1.99 1.101 3.754 2.242 5.296 1.141 1.54 2.682 2.767 4.625 3.675 1.942.909 4.3 1.366 7.075 1.366 2.56 0 4.964-.432 7.214-1.295 2.25-.864 4.24-2.027 5.966-3.493a20.217 20.217 0 0 0 4.324-5.11 17.834 17.834 0 0 0 2.29-6.15c.491-2.93.53-5.481.115-7.653-.417-2.174-1.173-4.155-2.267-5.943m6.96-26.429c-.461-2.082-1.294-3.854-2.496-5.319-1.203-1.463-2.745-2.597-4.625-3.399C29.804.401 27.66 0 25.256 0c-1.634 0-3.445.301-5.434.901-1.988.603-3.915 1.566-5.78 2.891-1.866 1.326-3.523 3.045-4.972 5.156-.186.273-.363.555-.531.845-.336.579.097 1.306.766 1.306H23.53v.008c.795.01 1.467.157 2.003.455.555.308.994.724 1.317 1.248.325.524.533 1.141.625 1.85a7.15 7.15 0 0 1-.092 2.266l-.417 2.59c-.123.647-.131 1.102-.023 1.363.109.264.455.394 1.04.394h8.279c.739 0 1.24-.13 1.502-.394.262-.261.47-.716.625-1.363l.462-2.636c.432-2.56.416-4.88-.046-6.96m3.87 39.54a1.31 1.31 0 0 0-1.291 1.085l-2.23 12.671c-.185 1.172.246 1.757 1.294 1.757h9.249c.525 0 .925-.154 1.203-.462.277-.309.478-.74.6-1.295l2.145-12.165a1.355 1.355 0 0 0-1.335-1.591h-9.634ZM79.4.908H51.744c-.525 0-.948.163-1.27.485-.326.326-.55.764-.672 1.32l-6.009 34.013a1.165 1.165 0 0 0 1.147 1.368l10.966-.004h13.458c.431 0 .801-.139 1.11-.416.308-.278.508-.679.601-1.203l1.387-7.862c.093-.616.024-1.04-.209-1.27-.229-.233-.546-.348-.947-.348H57.85l2.636-14.845H77.41c.37 0 .694-.138.971-.417.278-.277.463-.709.556-1.294l1.387-7.862C80.51 1.464 80.201.908 79.4.908"/></svg>
